**kern	**kern
*staff2	*staff1
*clefF4	*clefG2
*k[b-e-a-]	*k[b-e-a-]
*M3/4	*M3/4
*c:	*c:
=	=
4r	16c 16cc
.	16r
.	16d 16dd
.	16r
16CC 16C	16e- 16ee-
16r	16r
16DD 16D	16f 16ff
16r	16r
16EE- 16E-	4g 4gg
16r	.
16FF 16F	.
16r	.
=178	=178
4GG 4G	16g 16gg
.	16r
.	16a 16aa
.	16r
16GGG 16GG	16b 16bb
16r	16r
16AAA 16AA	16cc 16ccc
16r	16r
16BBB 16BB	4dd 4ddd
16r	.
16CC 16C	.
16r	.
=179	=179
4DD- 4D-	16B- 16b-
.	16r
.	16c 16cc
.	16r
16BBB- 16BB-	16d- 16dd-
16r	16r
16CC 16C	16e- 16ee-
16r	16r
16DD- 16D-	4f 4ff
16r	.
16EE- 16E-	.
16r	.
=180	=180
4FF 4F	16f 16ff
.	16r
.	16g 16gg
.	16r
16FF 16F	16a- 16aa-
16r	16r
16GG 16G	16b- 16bb-
16r	16r
16AA- 16A-	4cc 4ccc
16r	.
16BB- 16B-	.
16r	.
=181	=181
4C 4c	16a 16aa
.	16r
.	16b 16bb
.	16r
16AA 16A	16cc 16ccc
16r	16r
16BB 16B	16dd 16ddd
16r	16r
16C 16c	4ee- 4eee-
16r	.
16D 16d	.
16r	.
=182	=182
4E- 4e-	16b 16bb
.	16r
.	16cc 16ccc
.	16r
16BB 16B	16dd 16ddd
16r	16r
16C 16c	16ee- 16eee-
16r	16r
16D 16d	16ff 16fff
16r	16r
16E- 16e-	16gg 16ggg
16r	16r
=183	=183
16F 16f	4.aa- 4.aaa-
16r	.
16G 16g	.
16r	.
4.A- 4.a-	.
.	16gg 16ggg
.	16r
.	16ff 16fff
.	16r
16G 16g	16ee- 16eee-
16r	16r
=184	=184
16F 16f	16dd 16ddd
16r	16r
16E- 16e-	16cc 16ccc
16r	16r
16D 16d	16b 16bb
16r	16r
16C 16c	16cc 16ccc
16r	16r
16BB 16B	4r
16r	.
16C 16c	.
16r	.
=185||	=185||
*-	*-
